X: 59
T:La sanguinaire
C:Repertori 55
M:3/8
L:1/8
K:C
egf|e2e|d/e/f/d/e/f/|ec2|\
egf|e2e|d/e/f/d/e/f/|g3:|
|:cBc|d2d|d/e/f/d/e/f/|ec2|\
cBc|d2d|d/e/f/d/e/d/|c3:|
